X:1
T:Seven Gypsies on Yon Hill
M:4/4
L:1/4
K:F
 A/2 A3/2 G A| F E D A/2A/2| d/2 d3/2 c d| A/2 G3/2 A A/2B/2| c d A G/2G/2|\
 G/2F/2 E/2D/2 C D/2E/2| F G BA/2-G/2| F/2 D3/2 D z|
